svgs/sharp-light/hand-holding-droplet.svg

<svg xmlns="http://www.w3.org/2000/svg" viewBox="0 0 576 512"><!--! Font Awesome Pro 6.6.0 by @fontawesome - https://fontawesome.com License - https://fontawesome.com/license (Commercial License) Copyright 2024 Fonticons, Inc. --><path d="M236.8 121.6C228.5 132.7 224 146.2 224 160c0 35.3 28.7 64 64 64s64-28.7 64-64c0-13.8-4.5-27.3-12.8-38.4L288 53.3l-51.2 68.3zm-25.6-19.2L268 26.7 288 0l20 26.7 56.8 75.7C377.3 119 384 139.2 384 160c0 53-43 96-96 96s-96-43-96-96c0-20.8 6.7-41 19.2-57.6zM171.2 304l4.8 0 208 0 16 0 0 16 0 64 .2 0 103.6-61.7 13.5-8 8.3 13.3 40 64L574 405l-13.5 8.5-152 96-3.9 2.5-4.6 0L16 512 0 512l0-32 16 0 379.4 0L530 395l-23.3-37.2-94 56L409 416l-4.4 0-4.6 0-16 0-64 0-16 0-48 0-16 0 0-32 16 0 48 0 16 0 48 0 0-48-187.2 0-92 61.3-4 2.7L80 400l-64 0L0 400l0-32 16 0 59.2 0 92-61.3 4-2.7z"/></svg>

<svg xmlns="http://www.w3.org/2000/svg" viewBox="0 0 576 512"><!--! Font Awesome Pro 6.4.2 by @fontawesome - https://fontawesome.com License - https://fontawesome.com/license (Commercial License) Copyright 2023 Fonticons, Inc. --><path d="M236.8 121.6C228.5 132.7 224 146.2 224 160c0 35.3 28.7 64 64 64s64-28.7 64-64c0-13.8-4.5-27.3-12.8-38.4L288 53.3l-51.2 68.3zm-25.6-19.2L268 26.7 288 0l20 26.7 56.8 75.7C377.3 119 384 139.2 384 160c0 53-43 96-96 96s-96-43-96-96c0-20.8 6.7-41 19.2-57.6zM171.2 304H176 384h16v16 64h.2l103.6-61.7 13.5-8 8.3 13.3 40 64L574 405l-13.5 8.5-152 96-3.9 2.5H400 16 0V480H16 395.4L530 395l-23.3-37.2-94 56L409 416h-4.4H400 384 320 304 256 240V384h16 48 16 48V336H180.8l-92 61.3-4 2.7H80 16 0V368H16 75.2l92-61.3 4-2.7z"/></svg>
